icons/svg/call-voicemail_18.svg

<?xml version="1.0" encoding="UTF-8"?>
<svg width="18px" height="18px" viewBox="0 0 18 18" version="1.1" xmlns="http://www.w3.org/2000/svg" xmlns:xlink="http://www.w3.org/1999/xlink">
    <!-- Generator: Sketch 57.1 (83088) - https://sketch.com -->
    <title>call-voicemail_18</title>
    <desc>Created with Sketch.</desc>
    <g id="Icons-Webex" stroke="none" stroke-width="1" fill="none" fill-rule="evenodd">
        <g id="phone/call-voicemail_18" fill="#171B1F">
            <path d="M1.74081186,1.99971874 L3.35838257,1.99971874 C4.15996092,1.99971874 4.88829482,2.44399374 5.25854472,3.14472866 L5.3322993,3.2987431 L5.9428922,4.71776971 C6.21406461,5.34869063 6.22051715,6.05564603 5.96525802,6.68611616 L5.88083194,6.87281012 L5.46843149,7.69582555 C5.41237706,7.80882767 5.42639066,7.94483022 5.50746939,8.04883217 C6.36229946,9.14685275 7.65955913,10.4328769 8.97683825,11.4888967 C9.05851756,11.5552979 9.16197803,11.5788184 9.25851977,11.5558739 L9.32918038,11.5298974 L10.1379657,11.1248898 C10.7531085,10.8185205 11.4584215,10.7724865 12.1027436,10.9897934 L12.2940594,11.0628887 L13.7144386,11.6729001 C14.4515544,11.9902394 14.9453939,12.685648 15.0079631,13.4745576 L15.0147012,13.6449371 L15.0147012,15.2609674 C15.0147012,15.8029776 14.7694631,16.3029869 14.3410471,16.6359932 C14.0337487,16.8749977 13.663389,17 13.2850216,17 C13.1428836,17 12.9997446,16.9829997 12.8586076,16.946999 C10.341163,16.307987 7.46837349,14.5149534 4.97895619,12.0269068 C2.48753695,9.5388601 0.692794204,6.66880629 0.0531731136,4.15375913 C-0.0779542148,3.63574942 0.0361565901,3.0957393 0.365476369,2.67273136 C0.664566795,2.28752414 1.10068027,2.0505497 1.5796844,2.00700688 L1.74081186,1.99971874 L3.35838257,1.99971874 Z M3.35838257,2.9997375 L1.74081186,2.9997375 C1.51058831,2.9997375 1.29738128,3.10473946 1.15524326,3.28574286 C1.01710912,3.46474621 0.969062469,3.69075045 1.02411593,3.90775452 C1.61969425,6.25379851 3.31934466,8.95484915 5.68664338,11.3198935 C8.05294112,13.6839378 10.7575674,15.3819697 13.1048467,15.9769808 C13.3220576,16.0319818 13.5482772,15.9839809 13.7264503,15.8459784 C13.8790985,15.7284762 13.9768323,15.5602786 14.00517,15.3743723 L14.0137292,15.2609674 L14.0137292,13.6449371 C14.0137292,13.2327294 13.7931951,12.8561623 13.4411512,12.6530195 L13.3190547,12.5919173 L11.8986754,11.9819059 C11.5231997,11.8201251 11.1026432,11.8132114 10.7248827,11.9583554 L10.5854002,12.0199066 L9.77661486,12.4239142 C9.3141658,12.6539185 8.75462247,12.5939174 8.35022979,12.2679113 C6.95587584,11.1508903 5.63158992,9.83586567 4.71770251,8.66284368 C4.43392695,8.29833684 4.36014531,7.81232773 4.51387058,7.38779877 L4.57356254,7.24881717 L4.98496202,6.42580173 C5.16914087,6.05957264 5.19988677,5.64119443 5.07649672,5.25565085 L5.02299896,5.11277711 L4.41240605,3.69375051 C4.23123013,3.27274261 3.81682773,2.9997375 3.35838257,2.9997375 Z M8.92218518,1 L16.6026431,1 C17.3365322,1 17.9267801,1.56693105 17.9936816,2.27309369 L18,2.40702638 L18,7.62512422 C18,8.34702011 17.4529221,8.92806907 16.7384713,8.99392986 L16.6026431,9.00015 L10.5547705,9.00015 C10.2785022,9.00015 10.0542845,8.7761458 10.0542845,8.50014063 C10.0542845,8.25480269 10.2314442,8.05055195 10.464845,8.00819176 L10.5547705,8.00013125 L16.6026431,8.00013125 C16.802337,8.00013125 16.9698434,7.86614437 17.0085998,7.68794181 L17.0170455,7.60912392 L17.0170455,2.39102608 C17.0170455,2.20202254 16.8745009,2.04441021 16.685974,2.00796031 L16.6026431,2.00001875 L8.92218518,2.00001875 C8.72249127,2.00001875 8.55575124,2.13400564 8.51718645,2.3122082 L8.50878376,2.39102608 L8.50878376,4.99807496 C8.50878376,5.27408014 8.28456603,5.49808434 8.00829777,5.49808434 C7.76183623,5.49808434 7.55808282,5.32109337 7.51584702,5.08791478 L7.50781178,4.99807496 L7.50781178,2.39102608 C7.50781178,1.66913019 8.06996318,1.07390796 8.78618726,1.00637972 L8.92218518,1 L16.6026431,1 Z M14.5142152,3.50004688 C15.342019,3.50004688 16.0156732,4.17305949 16.0156732,5.000075 C16.0156732,5.82709051 15.342019,6.50010313 14.5142152,6.50010313 L14.5142152,6.50010313 L11.0108133,6.50010313 C10.1830095,6.50010313 9.50935534,5.82709051 9.50935534,5.000075 C9.50935534,4.17305949 10.1830095,3.50004688 11.0108133,3.50004688 C11.8386171,3.50004688 12.5122713,4.17305949 12.5122713,5.000075 C12.5122713,5.1760783 12.4762363,5.34308143 12.4201818,5.50008438 L12.4201818,5.50008438 L13.1048467,5.50008438 C13.0487922,5.34308143 13.0127572,5.1760783 13.0127572,5.000075 C13.0127572,4.17305949 13.6864114,3.50004688 14.5142152,3.50004688 Z M14.5142152,4.50006563 C14.2379469,4.50006563 14.0137292,4.72406983 14.0137292,5.00006563 C14.0137292,5.27608018 14.2379469,5.50008438 14.5142152,5.50008438 C14.7904835,5.50008438 15.0147012,5.27608018 15.0147012,5.00006563 C15.0147012,4.72406983 14.7904835,4.50006563 14.5142152,4.50006563 Z M11.0108133,4.50006563 C10.734545,4.50006563 10.5103273,4.72406983 10.5103273,5.00006563 C10.5103273,5.27608018 10.734545,5.50008438 11.0108133,5.50008438 C11.2870816,5.50008438 11.5112993,5.27608018 11.5112993,5.00006563 C11.5112993,4.72406983 11.2870816,4.50006563 11.0108133,4.50006563 Z" id="fill"></path>
        </g>
    </g>
</svg>

<svg width="18" height="18" xmlns="http://www.w3.org/2000/svg"><path d="M1.74 2h1.618c.802 0 1.53.444 1.9 1.145l.074.154.61 1.419c.272.63.279 1.338.023 1.968l-.084.187-.413.823a.332.332 0 00.04.353c.854 1.098 2.152 2.384 3.469 3.44.082.066.185.09.282.067l.07-.026.809-.405a2.564 2.564 0 011.965-.135l.191.073 1.42.61a2.147 2.147 0 011.294 1.802l.007.17v1.616c0 .542-.246 1.042-.674 1.375a1.716 1.716 0 01-1.482.311c-2.518-.639-5.39-2.432-7.88-4.92C2.488 9.539.693 6.669.053 4.154a1.712 1.712 0 01.312-1.481c.3-.385.736-.622 1.215-.666L1.74 2h1.618zm1.618 1H1.741a.741.741 0 00-.586.286.721.721 0 00-.13.622c.595 2.346 2.294 5.047 4.662 7.412 2.366 2.364 5.07 4.062 7.418 4.657a.732.732 0 00.9-.603l.009-.113v-1.616c0-.412-.22-.789-.573-.992l-.122-.061-1.42-.61a1.555 1.555 0 00-1.174-.024l-.14.062-.808.404c-.463.23-1.022.17-1.427-.156-1.394-1.117-2.718-2.432-3.632-3.605a1.342 1.342 0 01-.204-1.275l.06-.14.411-.822c.184-.366.215-.785.091-1.17l-.053-.143-.61-1.42A1.148 1.148 0 003.357 3zm5.564-2h7.68c.735 0 1.325.567 1.392 1.273l.006.134v5.218c0 .722-.547 1.303-1.262 1.369L16.603 9h-6.048a.5.5 0 01-.09-.992l.09-.008h6.048a.41.41 0 00.406-.312l.008-.079V2.391a.398.398 0 00-.331-.383L16.603 2h-7.68c-.2 0-.367.134-.406.312l-.008.079v2.607a.5.5 0 01-.993.09l-.008-.09V2.391c0-.722.562-1.317 1.278-1.385L8.922 1h7.68zm5.592 2.5c.828 0 1.502.673 1.502 1.5s-.674 1.5-1.502 1.5h-3.503A1.503 1.503 0 019.509 5a1.503 1.503 0 013.003 0c0 .176-.036.343-.092.5h.685a1.482 1.482 0 01-.092-.5c0-.827.673-1.5 1.501-1.5zm0 1a.5.5 0 100 1 .5.5 0 000-1zm-3.503 0a.5.5 0 100 1 .5.5 0 000-1z" fill="#171B1F" fill-rule="evenodd"/></svg>
